X:WFS 13-07 01
T:Oscar Woods' Jig
T:Tiger Smith's Jig
S:Walthamstow session 2013-07-09
Z:<djl@colourcountry.net>
M:6/8
K:G
P:A
BAG BAG |1,4 Bcd ded :|2,5 A2A A3 :|3,6 Bcd e3 d2g dBG A3 G3 :|
P:B
B2d d2B |1,4 c2e e2c :|2,5 c2A A3 :|3,6 c2e e3 d2g dBG A3 G3 :|

